src/components/Icon/assets/notification.svg

<svg width="24" height="24" viewBox="0 0 24 24" fill="none" xmlns="http://www.w3.org/2000/svg">
<path fill-rule="evenodd" clip-rule="evenodd" d="M4.59911 12.5451C5.42128 11.2233 5.85724 9.69908 5.85724 8.14424C5.85724 4.75077 8.60814 2.00024 12.0022 2.00024C15.3955 2.00024 18.1462 4.75096 18.1462 8.14424C18.1462 9.6994 18.5824 11.2234 19.405 12.5445L21.7567 16.3196C22.2111 17.0511 21.6851 18.0002 20.8222 18.0002H16.002C16.0019 20.2094 14.2113 22.0001 12.002 22.0001C9.79282 22.0001 8.00214 20.2094 8.00204 18.0002H3.18124C2.31684 18.0002 1.79054 17.0475 2.24988 16.3162L4.59911 12.5451ZM10.002 18.0002C10.0021 19.1049 10.8974 20.0001 12.002 20.0001C13.1067 20.0001 14.0019 19.1049 14.002 18.0002H10.002ZM19.2014 16.0002L17.7074 13.6018C16.6872 11.9635 16.1462 10.0733 16.1462 8.14424C16.1462 5.85553 14.291 4.00024 12.0022 4.00024C9.71265 4.00024 7.85724 5.8554 7.85724 8.14424C7.85724 10.0727 7.31663 11.9629 6.29702 13.602L4.80304 16.0002H19.2014Z" fill="#65676A"/>
</svg>

<svg xmlns="http://www.w3.org/2000/svg" width="24" height="24" viewBox="0 0 24 24">
    <path fill="#65676A" fill-rule="evenodd" d="M12.002 2c3.394 0 6.144 2.751 6.144 6.144 0 1.555.436 3.08 1.259 4.4l2.352 3.776c.454.731-.072 1.68-.935 1.68l-4.82.001c0 2.209-1.791 4-4 4-2.21 0-4-1.792-4-4h-4.82c-.865 0-1.391-.953-.932-1.685l2.35-3.77c.821-1.323 1.257-2.847 1.257-4.402C5.857 4.751 8.608 2 12.002 2zm2 16l-4 .001c0 1.104.896 2 2 2 1.105 0 2-.896 2-2zm-2-14c-2.29 0-4.145 1.855-4.145 4.144 0 1.929-.54 3.819-1.56 5.458L4.803 16h14.398l-1.494-2.398c-1.02-1.638-1.56-3.529-1.56-5.458C16.146 5.856 14.29 4 12.001 4z"/>
</svg>
